images/close.svg

<svg width="25" height="25" viewBox="0 0 25 25" fill="none" xmlns="http://www.w3.org/2000/svg">
<path d="M12.5 15.1616L3.18441 24.4772C2.83587 24.8257 2.39227 25 1.85361 25C1.31496 25 0.871355 24.8257 0.522813 24.4772C0.17427 24.1286 0 23.685 0 23.1464C0 22.6077 0.17427 22.1641 0.522813 21.8156L9.8384 12.5L0.522813 3.18441C0.17427 2.83587 0 2.39227 0 1.85361C0 1.31496 0.17427 0.871355 0.522813 0.522813C0.871355 0.17427 1.31496 0 1.85361 0C2.39227 0 2.83587 0.17427 3.18441 0.522813L12.5 9.8384L21.8156 0.522813C22.1641 0.17427 22.6077 0 23.1464 0C23.685 0 24.1286 0.17427 24.4772 0.522813C24.8257 0.871355 25 1.31496 25 1.85361C25 2.39227 24.8257 2.83587 24.4772 3.18441L15.1616 12.5L24.4772 21.8156C24.8257 22.1641 25 22.6077 25 23.1464C25 23.685 24.8257 24.1286 24.4772 24.4772C24.1286 24.8257 23.685 25 23.1464 25C22.6077 25 22.1641 24.8257 21.8156 24.4772L12.5 15.1616Z" fill="#29ABE2"/>
</svg>

<svg xmlns="http://www.w3.org/2000/svg" width="25" height="25" fill="none" viewBox="0 0 25 25"><path fill="#29abe2" d="m12.5 15.162-9.316 9.315Q2.662 25 1.854 25q-.809 0-1.331-.523Q0 23.955 0 23.147q0-.81.523-1.331L9.838 12.5.523 3.184Q0 2.662 0 1.854 0 1.045.523.523 1.046 0 1.853 0q.81 0 1.331.523L12.5 9.838 21.816.523Q22.338 0 23.146 0q.809 0 1.331.523.523.523.523 1.33 0 .81-.523 1.331L15.162 12.5l9.315 9.316q.523.522.523 1.33 0 .809-.523 1.331-.522.523-1.33.523-.81 0-1.331-.523z"/></svg>
